X:2
T: Mazurka CGF  (solo)
M:3/4
L:1/8
K:C
"C"g>^fg2c'2 | "G7"g>^fg2b2 | ba gf ed | "C"ce a^fg2 | g>^fg2c'2 | "G7"g>^fg2b2 |
ba gf ed | "C"c2c'2z2 :: [K:G] "G"G>B d>b a>g | "D7"ff e>^d e2 | ed dc'f2 | "G"ed dbg2 | G>B d>b a>g | 
"D7"ff e>^de2 | de fd c'f | "G"g2g2z2 :: [K:C] "G7"g>g gB fB | "C"e>G c>eG2 | "G7"G>G GfB2 | "C"Gg Gec2 | 
"G7"g>g gB fB | "C"e>G c>eG2 | "G7"B>a gf ed | "C"c2c'2z2 :: [K:F] "F"F>A ca gf | "Gm"ee d>^cd2 | 
"C7"dc cbe2 | "F"dc caf2 | F>A ca gf | "Gm"ee d>^cd2 | "C7"dc ec be | "F"f2f2z2 :| 

